rospo-icon-theme-classic-common/48x48/places/folder-grey-visiting.svg

<svg height="48" width="48" xmlns="http://www.w3.org/2000/svg"><rect height="26" opacity=".2" rx="2" width="40" x="4" y="17"/><path d="m4 34c0 1.108.892 2 2 2h36c1.108 0 2-.892 2-2v-22c0-1.108-.892-2-2-2h-20v-2c0-1.108-.892-2-2-2h-14c-1.108 0-2 .892-2 2" fill="#727272"/><rect height="26" opacity=".2" rx="2" width="40" x="4" y="15"/><rect fill="#e4e4e4" height="16" rx="2" width="36" x="6" y="13"/><rect fill="#8e8e8e" height="26" rx="2" width="40" x="4" y="16"/><path d="m6 6c-1.108 0-2 .892-2 2v1c0-1.108.892-2 2-2h14c1.108 0 2 .892 2 2v-1c0-1.108-.892-2-2-2zm16 4v1h20c1.108 0 2 .892 2 2v-1c0-1.108-.892-2-2-2z" fill="#fff" opacity=".1"/><path d="m6 16c-1.108 0-2 .892-2 2v1.309l38.908 22.464c.646-.33 1.092-.995 1.092-1.773v-2.596l-37.0723-21.404zm7.857 0 30.143 17.404v-5l-21.484-12.404zm15.588 0 14.555 8.404v-5l-5.896-3.404zm-25.445 7.309v5l23.713 13.691h8.66zm0 9v5l8.125 4.691h8.66z" fill="#323232"/></svg>

<svg xmlns="http://www.w3.org/2000/svg" width="48" height="48" version="1">
 <rect style="opacity:0.2" width="40" height="26" x="4" y="17" rx="2" ry="2"/>
 <path style="fill:#727272" d="M 4,34 C 4,35.108 4.892,36 6,36 H 42 C 43.108,36 44,35.108 44,34 V 12 C 44,10.892 43.108,10 42,10 H 22 V 8 C 22,6.892 21.108,6 20,6 H 6 C 4.892,6 4,6.892 4,8"/>
 <rect style="opacity:0.2" width="40" height="26" x="4" y="15" rx="2" ry="2"/>
 <rect style="fill:#dcdcdc" width="36" height="16" x="6" y="13" rx="2" ry="2"/>
 <rect style="fill:#8e8e8e" width="40" height="26" x="4" y="16" rx="2" ry="2"/>
 <path style="opacity:0.1;fill:#ffffff" d="M 6,6 C 4.892,6 4,6.892 4,8 V 9 C 4,7.892 4.892,7 6,7 H 20 C 21.108,7 22,7.892 22,9 V 8 C 22,6.892 21.108,6 20,6 Z M 22,10 V 11 H 42 C 43.108,11 44,11.892 44,13 V 12 C 44,10.892 43.108,10 42,10 Z"/>
 <path style="fill:#323232" d="M 6 16 C 4.892 16 4 16.892 4 18 L 4 19.309 L 42.908 41.773 C 43.554 41.443 44 40.778 44 40 L 44 37.404 L 6.9277 16 L 6 16 z M 13.857 16 L 44 33.404 L 44 28.404 L 22.516 16 L 13.857 16 z M 29.445 16 L 44 24.404 L 44 19.404 L 38.104 16 L 29.445 16 z M 4 23.309 L 4 28.309 L 27.713 42 L 36.373 42 L 4 23.309 z M 4 32.309 L 4 37.309 L 12.125 42 L 20.785 42 L 4 32.309 z"/>
</svg>
